www/assets/icons/cancel_schedule_send.svg

<svg xmlns="http://www.w3.org/2000/svg" width="24" height="24" viewBox="0 0 24 24" fill='currentColor'><path d="M16 7.5c-.42 0-.83.04-1.24.11L.51 1.5l-.01 7 9 2-9 2 .01 7 8.07-3.46c.51 3.65 3.63 6.46 7.42 6.46 4.14 0 7.5-3.36 7.5-7.5S20.14 7.5 16 7.5m0 13a5.51 5.51 0 0 1-5.5-5.5c0-3.03 2.47-5.5 5.5-5.5s5.5 2.47 5.5 5.5-2.47 5.5-5.5 5.5"/><path d="M17.77 12.53 16 14.29l-1.77-1.76-.7.7L15.29 15l-1.76 1.77.7.7L16 15.71l1.77 1.76.7-.7L16.71 15l1.76-1.77z"/></svg>

<svg width="24" height="24" viewBox="0 0 24 24" xmlns="http://www.w3.org/2000/svg" fill='currentColor'><path d="M16 7.5C15.58 7.5 15.17 7.54 14.76 7.61L0.51 1.5L0.5 8.5L9.5 10.5L0.5 12.5L0.51 19.5L8.58 16.04C9.09 19.69 12.21 22.5 16 22.5C20.14 22.5 23.5 19.14 23.5 15C23.5 10.86 20.14 7.5 16 7.5ZM16 20.5C12.97 20.5 10.5 18.03 10.5 15C10.5 11.97 12.97 9.5 16 9.5C19.03 9.5 21.5 11.97 21.5 15C21.5 18.03 19.03 20.5 16 20.5Z"/><path d="M17.77 12.53L16 14.29L14.23 12.53L13.53 13.23L15.29 15L13.53 16.77L14.23 17.47L16 15.71L17.77 17.47L18.47 16.77L16.71 15L18.47 13.23L17.77 12.53Z"/></svg>
